assets/Astonished face/Flat/astonished_face_flat.svg

<svg width="32" height="32" viewBox="0 0 32 32" fill="none" xmlns="http://www.w3.org/2000/svg">
<path d="M15.9989 29.9978C25.3333 29.9978 29.9978 23.7303 29.9978 15.9989C29.9978 8.26751 25.3333 2 15.9989 2C6.66443 2 2 8.26751 2 15.9989C2 23.7303 6.66443 29.9978 15.9989 29.9978Z" fill="#FFB02E"/>
<path d="M10.5 19C12.9853 19 15 16.9853 15 14.5C15 12.0147 12.9853 10 10.5 10C8.01472 10 6 12.0147 6 14.5C6 16.9853 8.01472 19 10.5 19Z" fill="white"/>
<path d="M21.5 19C23.9853 19 26 16.9853 26 14.5C26 12.0147 23.9853 10 21.5 10C19.0147 10 17 12.0147 17 14.5C17 16.9853 19.0147 19 21.5 19Z" fill="white"/>
<path d="M8.06915 7.98761C7.47625 8.55049 7.11769 9.22774 6.97423 9.65811C6.88691 9.92009 6.60375 10.0617 6.34178 9.97434C6.07981 9.88702 5.93823 9.60386 6.02555 9.34189C6.21542 8.77226 6.65687 7.94951 7.38064 7.26239C8.1129 6.5672 9.1478 6 10.4999 6C10.776 6 10.9999 6.22386 10.9999 6.5C10.9999 6.77614 10.776 7 10.4999 7C9.45199 7 8.65355 7.4328 8.06915 7.98761Z" fill="#402A32"/>
<path d="M11.9999 17C13.1045 17 13.9999 16.1046 13.9999 15C13.9999 13.8954 13.1045 13 11.9999 13C10.8953 13 9.99989 13.8954 9.99989 15C9.99989 16.1046 10.8953 17 11.9999 17Z" fill="#402A32"/>
<path d="M19.9999 17C21.1045 17 21.9999 16.1046 21.9999 15C21.9999 13.8954 21.1045 13 19.9999 13C18.8953 13 17.9999 13.8954 17.9999 15C17.9999 16.1046 18.8953 17 19.9999 17Z" fill="#402A32"/>
<path d="M25.0255 9.65811C24.8821 9.22774 24.5235 8.55049 23.9306 7.98761C23.3462 7.4328 22.5478 7 21.4999 7C21.2237 7 20.9999 6.77614 20.9999 6.5C20.9999 6.22386 21.2237 6 21.4999 6C22.852 6 23.8869 6.5672 24.6191 7.26239C25.3429 7.94951 25.7844 8.77226 25.9742 9.34189C26.0616 9.60386 25.92 9.88702 25.658 9.97434C25.396 10.0617 25.1129 9.92009 25.0255 9.65811Z" fill="#402A32"/>
<path d="M13.1707 22C13.0602 22.3128 13 22.6494 13 23V25C13 26.6569 14.3431 28 16 28C17.6569 28 19 26.6569 19 25V23C19 22.6494 18.9398 22.3128 18.8293 22L16 21L13.1707 22Z" fill="#BB1D80"/>
<path d="M13.1707 22C13.5825 20.8348 14.6937 20 15.9999 20C17.3062 20 18.4174 20.8348 18.8292 22H13.1707Z" fill="white"/>
</svg>

<svg xmlns="http://www.w3.org/2000/svg" width="32" height="32" fill="none"><path fill="#FFB02E" d="M15.999 29.998c9.334 0 13.999-6.268 13.999-14 0-7.73-4.665-13.998-14-13.998C6.665 2 2 8.268 2 15.999c0 7.731 4.664 13.999 13.999 13.999Z"/><path fill="#fff" d="M10.5 19a4.5 4.5 0 1 0 0-9 4.5 4.5 0 0 0 0 9ZM21.5 19a4.5 4.5 0 1 0 0-9 4.5 4.5 0 0 0 0 9Z"/><path fill="#402A32" d="M8.07 7.988c-.594.562-.952 1.24-1.096 1.67a.5.5 0 1 1-.948-.316c.19-.57.63-1.392 1.355-2.08C8.113 6.567 9.148 6 10.5 6a.5.5 0 0 1 0 1c-1.048 0-1.846.433-2.43.988ZM12 17a2 2 0 1 0 0-4 2 2 0 0 0 0 4ZM20 17a2 2 0 1 0 0-4 2 2 0 0 0 0 4ZM25.026 9.658c-.144-.43-.503-1.108-1.095-1.67C23.346 7.433 22.548 7 21.5 7a.5.5 0 1 1 0-1c1.352 0 2.387.567 3.12 1.262.723.688 1.164 1.51 1.354 2.08a.5.5 0 1 1-.948.316Z"/><path fill="#BB1D80" d="M13.17 22c-.11.313-.17.65-.17 1v2a3 3 0 1 0 6 0v-2c0-.35-.06-.687-.17-1L16 21l-2.83 1Z"/><path fill="#fff" d="M13.17 22a3.001 3.001 0 0 1 5.66 0h-5.66Z"/></svg>
